build/img/icons-sprite/icon-github.svg

<svg width="48" height="48" fill="none" xmlns="http://www.w3.org/2000/svg"><path d="M24 1C10.74 1 0 11.56 0 24.584c0 10.422 6.876 19.26 16.41 22.376 1.2.222 1.64-.508 1.64-1.134 0-.56-.02-2.044-.03-4.01-6.676 1.422-8.084-3.164-8.084-3.164-1.092-2.722-2.67-3.45-2.67-3.45-2.174-1.462.168-1.432.168-1.432 2.41.164 3.676 2.43 3.676 2.43 2.14 3.606 5.618 2.564 6.99 1.962.216-1.526.834-2.564 1.52-3.154-5.33-.59-10.932-2.618-10.932-11.654 0-2.574.93-4.678 2.47-6.328-.27-.596-1.08-2.994.21-6.242 0 0 2.01-.632 6.6 2.418 1.92-.524 3.96-.784 6-.796 2.04.012 4.08.272 6 .796 4.56-3.05 6.57-2.418 6.57-2.418 1.29 3.248.48 5.646.24 6.242 1.53 1.65 2.46 3.754 2.46 6.328 0 9.06-5.61 11.054-10.95 11.634.84.708 1.62 2.154 1.62 4.364 0 3.156-.03 5.692-.03 6.458 0 .618.42 1.356 1.65 1.12C41.13 43.834 48 34.99 48 24.584 48 11.56 37.254 1 24 1z" fill="currentColor"/></svg>

<svg width="48" height="48" viewBox="0 0 48 48" fill="none" xmlns="http://www.w3.org/2000/svg">
<path d="M24 1C10.74 1 0 11.56 0 24.584C0 35.006 6.876 43.844 16.41 46.96C17.61 47.182 18.05 46.452 18.05 45.826C18.05 45.266 18.03 43.782 18.02 41.816C11.344 43.238 9.936 38.652 9.936 38.652C8.844 35.93 7.266 35.202 7.266 35.202C5.092 33.74 7.434 33.77 7.434 33.77C9.844 33.934 11.11 36.2 11.11 36.2C13.25 39.806 16.728 38.764 18.1 38.162C18.316 36.636 18.934 35.598 19.62 35.008C14.29 34.418 8.688 32.39 8.688 23.354C8.688 20.78 9.618 18.676 11.158 17.026C10.888 16.43 10.078 14.032 11.368 10.784C11.368 10.784 13.378 10.152 17.968 13.202C19.888 12.678 21.928 12.418 23.968 12.406C26.008 12.418 28.048 12.678 29.968 13.202C34.528 10.152 36.538 10.784 36.538 10.784C37.828 14.032 37.018 16.43 36.778 17.026C38.308 18.676 39.238 20.78 39.238 23.354C39.238 32.414 33.628 34.408 28.288 34.988C29.128 35.696 29.908 37.142 29.908 39.352C29.908 42.508 29.878 45.044 29.878 45.81C29.878 46.428 30.298 47.166 31.528 46.93C41.13 43.834 48 34.99 48 24.584C48 11.56 37.254 1 24 1Z" fill="currentColor"/>
</svg>
